icons/svg/person-add.svg

<svg width="24" height="24" viewBox="0 0 24 24" fill="none" xmlns="http://www.w3.org/2000/svg">
<path d="M14.1037 6.85375C14.1037 8.84404 12.4903 10.4575 10.5 10.4575C8.50972 10.4575 6.89627 8.84404 6.89627 6.85375C6.89627 4.86345 8.50972 3.25 10.5 3.25C12.4903 3.25 14.1037 4.86345 14.1037 6.85375Z" stroke="currentColor" stroke-width="1.5" stroke-linecap="round" stroke-linejoin="round"/>
<path d="M10.8696 20.75L3.5 20.75C2.94771 20.75 2.5 20.3023 2.5 19.75V18.5041C2.5 15.6977 6.47403 13.5 10.5 13.5C10.7573 13.5 11.0145 13.509 11.2704 13.5265" stroke="currentColor" stroke-width="1.5" stroke-linecap="round" stroke-linejoin="round"/>
<path fill-rule="evenodd" clip-rule="evenodd" d="M17.5 23.0001C20.5376 23.0001 23 20.5376 23 17.5001C23 14.4625 20.5376 12.0001 17.5 12.0001C14.4624 12.0001 12 14.4625 12 17.5001C12 20.5376 14.4624 23.0001 17.5 23.0001ZM17.5 14.0067C17.7761 14.0067 18 14.2305 18 14.5067V17.0001H20.4934C20.7696 17.0001 20.9934 17.224 20.9934 17.5001C20.9934 17.7763 20.7696 18.0001 20.4934 18.0001H18V20.4935C18 20.7696 17.7761 20.9935 17.5 20.9935C17.2239 20.9935 17 20.7696 17 20.4935V18.0001H14.5066C14.2304 18.0001 14.0066 17.7763 14.0066 17.5001C14.0066 17.224 14.2304 17.0001 14.5066 17.0001H17V14.5067C17 14.2305 17.2239 14.0067 17.5 14.0067Z" fill="currentColor"/>
</svg>

<svg xmlns="http://www.w3.org/2000/svg" width="24" height="24" fill="none" viewBox="0 0 24 24"><path stroke="currentColor" stroke-linecap="round" stroke-linejoin="round" stroke-width="1.5" d="M14.104 6.854a3.604 3.604 0 1 1-7.208 0 3.604 3.604 0 0 1 7.208 0M10.87 20.75H3.5a1 1 0 0 1-1-1v-1.246c0-2.806 3.974-5.004 8-5.004q.387 0 .77.027"/><path fill="currentColor" fill-rule="evenodd" d="M17.5 23a5.5 5.5 0 1 0 0-11 5.5 5.5 0 0 0 0 11m0-8.993a.5.5 0 0 1 .5.5V17h2.493a.5.5 0 1 1 0 1H18v2.494a.5.5 0 0 1-1 0V18h-2.493a.5.5 0 1 1 0-1H17v-2.493a.5.5 0 0 1 .5-.5" clip-rule="evenodd"/></svg>
